X:1
T:Title
%%score [ 1 2 3 4 ]
L:1/8
Q:1/4=120
M:3/4
K:D
V:1 treble nm="MusicXML Part"
V:2 treble nm="MusicXML Part"
V:3 treble nm="MusicXML Part"
V:4 bass nm="MusicXML Part"
V:1
"^Amen, Gott Vat'r und Sohne sei Lob" G2 | E4 F2 | G4 A2 | B6 | B4 e2 | d4 c2 | %6
w: 1. A-|men, Gott|Vat'r und|Soh-|ne sei|Lob im|
w: 2. A-|men, kein|Tor soll|schrek-|ken, Chris-|tus will uns|
w: 3. A-|men, Gott|sei ge-|prei-|set, der|Geist auf|
"^Joachim a Burgk (1540-1616)" B4 B2 | (^A3 ^G A2) | B4 ^G2 | A4 B2 | A4 A2 | ^G6 | A4 d2 | %13
w: Him- mels-|thro * *|ne, sein|Geist stärk|uns im|Glau-|ben, im|
w: auf- er-|wek * *|ken, der|selbst zu-|vor be-|gra-|ben, be-|
w: Chri- stum|wei * *|set, der|helf uns|all- zu-|sam-|men, zu-|
 (c3 B c2) | B4 B2 | ^A6 | B4 B2 | B4 A2 | G4 A2 | B6 | B4 ^G2 | A4 A2 | F4 E2 | (^D3 C D2) | %24
w: Glau * *|ben im|Glau-|ben, und|mach uns|se- lig,|A-|men; und|mach uns|se- lig,|A * *|
w: gra * *|ben, be-|gra-|ben, nun|e- wig|le- bet,|A-|men; nun|e- wig|leb- et,|A * *|
w: sam * *|men, zu-|sam-|men, im|ew- gen|Le- ben,|A-|men; im|ew- gen|Le- ben,|A * *|
 !fermata!E4 |] %25
w: men.|
w: men.|
w: men.|
V:2
 B,2 | B,4 B,2 | E4 E2 | (^D3 C D2) | E4 G2 | F4 F2 | F4 G2 | (F3 ^G F2) | F4 E2 | E4 E2 | E4 ^D2 | %11
 E6 | E4 A2 | (A3 B A2) | F4 E2 | F6 | F4 G2 | G4 F2 | D4 F2 | G6 | F4 E2 | F4 E2 | D4 A,2 | %23
 (B,3 C B,2) | !fermata!B,4 |] %25
V:3
 E2 | G4 F2 | E4 E2 | F6 | G4 B2 | B4 c2 | d4 e2 | c6 | d4 B2 | c4 B2 | c4 A2 | B6 | c4 f2 | e6 | %14
w: 1. A-|men, Gott|Vat'r und|Soh-|ne sei|Lob im|Him- mels-|thro-|ne, sein|Geist stärk|uns im|Glau-|ben, im|Glau-|
w: 2. A-|men, kein|Tor soll|schrek-|ken, Chris-|tus will uns|auf- er-|wek|ken, der|selbst zu-|vor be-|gra-|ben, be-|gra|
w: 3. A-|men, Gott|sei ge-|prei-|set, der|Geist auf|Chri- stum|wei|set, der|helf uns|all- zu-|sam-|men, zu-|sam|
 d4 B2 | c6 | d4 e2 | e4 c2 | B4 c2 | e6 | d4 B2 | d4 c2 | B4 E2 | F6 | !fermata!^G4 |] %25
w: ben im|Glau-|ben, und|mach uns|se- lig,|A-|men; und|mach uns|se- lig,|A-|men.|
w: ben, be-|gra-|ben, nun|e- wig|le- bet,|A-|men; nun|e- wig|leb- et,|A|men.|
w: men, zu-|sam-|men, im|ew- gen|Le- ben,|A-|men; im|ew- gen|Le- ben,|A|men.|
V:4
 E,2 | E,4 D,2 | =C,4 C,2 | B,,6 | E,4 E,2 | B,,4 ^A,,2 | B,,4 E,2 | (F,3 E, F,2) | B,,4 E,2 | %9
 A,4 ^G,2 | A,4 F,2 | E,6 | A,4 D,2 | (A,3 ^G, A,2) | B,4 G,2 | F,6 | B,,4 E,2 | E,4 F,2 | %18
 G,4 F,2 | E,6 | B,,4 E,2 | D,4 A,,2 | B,,4 =C,2 | (B,,3 ^A,, B,,2) | !fermata!E,4 |] %25

